tools/download-figma-icons/icons/action/search.svg

<svg width="24" height="24" viewBox="0 0 24 24" fill="none" xmlns="http://www.w3.org/2000/svg"><path d="m21.71 20.29-5.4-5.4A7.985 7.985 0 0 0 18 9.99C18 5.59 14.41 2 10 2s-8 3.59-8 8 3.59 8 8 8c1.85 0 3.54-.63 4.9-1.69l5.4 5.4c.2.2.45.29.71.29.26 0 .51-.1.71-.29a.996.996 0 0 0 0-1.41l-.01-.01ZM4 10c0-3.31 2.69-6 6-6s6 2.69 6 6-2.69 6-6 6-6-2.69-6-6Z" fill="currentColor"/></svg>

<svg width="24" height="24" viewBox="0 0 24 24" fill="none" xmlns="http://www.w3.org/2000/svg">
<path d="M21.71 20.29L16.31 14.89C17.36 13.53 18 11.84 18 9.99C18 5.59 14.41 2 10 2C5.59 2 2 5.59 2 10C2 14.41 5.59 18 10 18C11.85 18 13.54 17.37 14.9 16.31L20.3 21.71C20.5 21.91 20.75 22 21.01 22C21.27 22 21.52 21.9 21.72 21.71C22.11 21.32 22.11 20.69 21.72 20.3L21.71 20.29ZM4 10C4 6.69 6.69 4 10 4C13.31 4 16 6.69 16 10C16 13.31 13.31 16 10 16C6.69 16 4 13.31 4 10Z" fill="black"/>
</svg>
